X:1
T:Newport News, 87.87 D refrain
T:Newport News, 87.87 D refrain
T:Herbert Stephen Irons, 1894
T:Public Domain Courtesy of the Cyber Hymnal™
C:Herbert Stephen Irons, 1894
Z:Public Domain
Z:Courtesy of the Cyber Hymnal™
%%score ( 1 2 ) ( 3 4 )
L:1/8
Q:1/4=110
M:4/4
K:G
V:1 treble 
V:2 treble 
V:3 bass 
V:4 bass 
V:1
 [Gd]3 [Fc] [GB]2 [GB]2 | (BA) ([DG][CF]) [B,G]4 | [DA]3 [GB] [Gc]2 [GB]2 | [GB]4 [FA]4 | %4
 [FB]3 [FA] [EG]2 [^DF]2 | [EG]2 [FA]2 [GB]4 | [Ge]3 [Gd] [E^c]2 [Ec]2 | [Fd]4 [Fd]4 | %8
 [Gd]3 [Ge] [Gd]2 [Fc]2 | [GB]2 [FA]2 [EG]4 | [EA]3 [DB] ([Cc][DB]) (AG) | (G3 F) [DF]4 | %12
 G3 [FA] [GB]2 [FA]2 | [GB]2 e2 [Gd]4 | [Fc]2 [GB]2 [EA]2 [CG]2 | (F3 G) [DG]4 | %16
 [DA]3 [^CA] [DA]2 [FA]2 | [GB]3 [GB] [GB]4 | [Fc]2 [GB]2 [EA]2 [EG]2 | G3 F [DF]4 | %20
 G3 [FA] [GB]2 [FA]2 | [GB]2 e2 [Gd]4 | [Fc]2 [GB]2 [EA]2 [CG]2 | (F3 G) [DG]4 |] %24
V:2
 x8 | E2 x6 | x8 | x8 | x8 | x8 | x8 | x8 | x8 | x8 | x6 E2 | D4 x4 | G3 x5 | x2 (EF) x4 | x8 | %15
 D4 x4 | x8 | x8 | x8 | D4 x4 | G3 x5 | x2 (EF) x4 | x8 | D4 x4 |] %24
V:3
 [G,B,]3 [A,C] [B,D]2 [G,D]2 | (DC) (B,A,) [E,G,]4 | [F,D]3 [G,D] [C,E]2 [^C,E]2 | [D,D]4 [D,D]4 | %4
 [^D,B,]3 [D,B,] [E,B,]2 [B,,B,]2 | [E,B,]2 (DC) [G,B,]4 | [E,B,]3 [E,B,] A,2 A,2 | %7
 [D,A,]4 [D,A,]4 | [B,D]3 C [B,D]2 [A,D]2 | [G,D]2 [D,C]2 [E,B,]4 | %10
 [C,A,]3 [B,,^G,] ([A,,A,][B,,G,]) A,2 | (B,3 A,) [D,A,]4 | [B,,D]3 [A,,C] [G,,B,]2 [D,D]2 | %13
 [G,B,]2 (G,A,) [B,,B,]4 | [A,,C]2 [B,,D]2 [C,C]2 [E,G,]2 | ([D,A,]3 [G,,B,]) [G,,B,]4 | %16
 [D,F,]3 [E,G,] [F,A,]2 [D,D]2 | [G,D]3 [G,D] [G,D]4 | [A,,C]2 [B,,D]2 [C,C]2 [^C,A,]2 | %19
 [D,A,]4 [D,A,]4 | [B,,D]3 [A,,C] [G,,B,]2 [D,D]2 | [G,B,]2 (G,A,) [B,,B,]4 | %22
 [A,,C]2 [B,,D]2 [C,C]2 [E,G,]2 | ([D,A,]3 [G,,B,]) [G,,B,]4 |] %24
V:4
 x8 | C,2 D,2 x4 | x8 | x8 | x8 | x2 D,2 x4 | x4 A,2 A,2 | x8 | x3 C x4 | x8 | x6 (C,^C,) | %11
 D,4 x4 | x8 | x2 C,2 x4 | x8 | x8 | x8 | x8 | x8 | x8 | x8 | x2 C,2 x4 | x8 | x8 |] %24

